X: 1
T:Corry's Rat
M:2/4
L:1/8
C:Tommy Armstrong
O:A>A A>A|A>A A>A
K:F
|A>A A>A|A>A >A>A|A>G F>E|D4|G>G G>G|G2 F>E|
D>E F>G|A3 A|D>E F>G|A2 c>c|d>d c>c|A4|
A>G F>E| D2 G>G|A>G F>E|D4||A>A A2|
A AAA| A>G F>E|D>E F>G|A>=B c>c|d>d c>c|
A3 A| A>G F>E|D>E F>G
A>G F>E|D4||
